X:6
T:Black Leggs. WCl.06
T:Bonny Cate. WCl.06
T:Bonny Kate,aka. WCl.06
M:C|
L:1/8
Q:120
C:”or Bonny Cate”
S:William Clarke MS,Lincoln,1770.
R:.Country Dance.
O:Lincoln
A:England
N:Alternative Bonny Cate title in MS…
Z:vmp.Barry Callaghan
K:A
“_No time sig. in ms”abag aeef|edcB cAAB|\
cA- AB/2c/2 dB- Bc/2d/2|c>edc B4:|!
|:cA- AB/2c/2 dBec|fd- de/2f/2g2 (ef/2g/2)|a>baf egaf|efec A2A2:|

